src/assets/image/block11/employee-decor8.svg

<svg width="30" height="24" viewBox="0 0 30 24" fill="none" xmlns="http://www.w3.org/2000/svg">
<path d="M30 12L22.9288 19.0712L21.1613 17.3038L26.465 12L21.1613 6.69625L22.9288 4.92875L30 12ZM3.535 12L8.83875 17.3038L7.07125 19.0712L0 12L7.07125 4.92875L8.8375 6.69625L3.535 12ZM12.235 23.25H9.575L17.765 0.75H20.425L12.235 23.25Z" fill="#696FE6"/>
</svg>

<svg width="30" height="24" fill="none" xmlns="http://www.w3.org/2000/svg"><path d="m30 12-7.071 7.071-1.768-1.767L26.465 12l-5.304-5.304L22.93 4.93 30 12ZM3.535 12l5.304 5.304L7.07 19.07 0 12l7.071-7.071 1.767 1.767L3.535 12Zm8.7 11.25h-2.66l8.19-22.5h2.66l-8.19 22.5Z" fill="#696FE6"/></svg>
